svg/device/base_station_2_line.svg

<?xml version="1.0" encoding="UTF-8"?>
<svg width="24px" height="24px" viewBox="0 0 24 24" version="1.1" xmlns="http://www.w3.org/2000/svg" xmlns:xlink="http://www.w3.org/1999/xlink">
    <title>base_station_2_line</title>
    <g id="Icon" stroke="none" stroke-width="1" fill="none" fill-rule="evenodd">
        <g id="Device" transform="translate(-144.000000, -288.000000)" fill-rule="nonzero">
            <g id="base_station_2_line" transform="translate(144.000000, 288.000000)">
                <path d="M24,0 L24,24 L0,24 L0,0 L24,0 Z M12.5935,23.2578 L12.5819,23.2595 L12.5109,23.295 L12.4919,23.2987 L12.4767,23.295 L12.4057,23.2595 C12.3958,23.2564 12.387,23.259 12.3821,23.2649 L12.378,23.2758 L12.3609,23.7031 L12.3659,23.7235 L12.3769,23.7357 L12.4805,23.8097 L12.4953,23.8136 L12.5071,23.8097 L12.6107,23.7357 L12.6233,23.7197 L12.6267,23.7031 L12.6096,23.2758 C12.6076,23.2657 12.601,23.2593 12.5935,23.2578 Z M12.8584,23.1453 L12.8445,23.1473 L12.6598,23.2397 L12.6499,23.2499 L12.6472,23.2611 L12.6651,23.6906 L12.6699,23.7034 L12.6784,23.7105 L12.8793,23.8032 C12.8914,23.8069 12.9022,23.803 12.9078,23.7952 L12.9118,23.7812 L12.8777,23.1665 C12.8753,23.1546 12.8674,23.147 12.8584,23.1453 Z M12.143,23.1473 C12.1332,23.1424 12.1222,23.1453 12.1156,23.1526 L12.1099,23.1665 L12.0758,23.7812 C12.0751,23.7927 12.0828,23.8019 12.0926,23.8046 L12.1083,23.8032 L12.3092,23.7105 L12.3186,23.7024 L12.3225,23.6906 L12.3404,23.2611 L12.3372,23.2485 L12.3278,23.2397 L12.143,23.1473 Z" id="MingCute"></path>
                <path d="M12,8.5 C12.8284,8.5 13.5,9.17157 13.5,10 C13.5,10.3927 13.3491,10.7502 13.1021,11.0175 L16.9138,19.5939 C17.1381,20.0985 16.9108,20.6895 16.4061,20.9138 C15.9015,21.1381 15.3105,20.9108 15.0862,20.4061 L14.4612,19 L9.53876,19 L8.91381,20.4061 C8.68951,20.9108 8.09855,21.1381 7.59386,20.9138 C7.08918,20.6895 6.86188,20.0985 7.08619,19.5939 L10.8979,11.0175 C10.6509,10.7502 10.5,10.3927 10.5,10 C10.5,9.17157 11.1716,8.5 12,8.5 Z M12,13.4622 L10.4277,17 L13.5723,17 L12,13.4622 Z M7.05025,3.63603 C7.44078,4.02656 7.44078,4.65972 7.05025,5.05025 C6.61876,5.48174 6.24349,5.96905 5.9362,6.50014 C5.34098,7.52886 5,8.72309 5,9.99999 C5,11.2769 5.34099,12.4711 5.9362,13.4999 C6.21279,13.9779 6.04949,14.5896 5.57146,14.8662 C5.09342,15.1428 4.48168,14.9795 4.20509,14.5015 C3.43846,13.1765 3,11.6379 3,9.99999 C3,8.36206 3.43846,6.82349 4.20508,5.49852 C4.60021,4.81562 5.08228,4.18979 5.63604,3.63603 C6.02656,3.24551 6.65973,3.24551 7.05025,3.63603 Z M18.364,3.63603 C18.9177,4.18979 19.3998,4.81562 19.7949,5.49852 C20.5615,6.82349 21,8.36206 21,9.99999 C21,11.6379 20.5615,13.1765 19.7949,14.5015 C19.5183,14.9795 18.9066,15.1428 18.4285,14.8662 C17.9505,14.5896 17.7872,13.9779 18.0638,13.4999 C18.659,12.4711 19,11.2769 19,9.99999 C19,8.72309 18.659,7.52886 18.0638,6.50014 C17.7565,5.96905 17.3812,5.48174 16.9497,5.05025 C16.5592,4.65972 16.5592,4.02656 16.9497,3.63603 C17.3403,3.24551 17.9734,3.24551 18.364,3.63603 Z M9.87868,6.46446 C10.2692,6.85498 10.2692,7.48815 9.87868,7.87867 C9.6935,8.06385 9.53256,8.27288 9.40088,8.50047 C9.14612,8.94077 9,9.4518 9,9.99999 C9,10.4698843 9.10735347,10.9124406 9.29845784,11.3065691 L9.40088,11.4995 C9.67747,11.9776 9.51417,12.5893 9.03613,12.8659 C8.5581,13.1425 7.94636,12.9792 7.66977,12.5011 C7.2436,11.7646 7,10.9092 7,9.99999 C7,9.09077 7.2436,8.2354 7.66976,7.49886 C7.88928,7.11945 8.15702,6.77191 8.46447,6.46446 C8.85499,6.07394 9.48816,6.07394 9.87868,6.46446 Z M15.5355,6.46446 C15.843,6.77191 16.1107,7.11945 16.3302,7.49886 C16.7564,8.2354 17,9.09077 17,9.99999 C17,10.9092 16.7564,11.7646 16.3302,12.5011 C16.0536,12.9792 15.4419,13.1425 14.9639,12.8659 C14.51995,12.6090571 14.3474347,12.063276 14.5465161,11.6038241 L14.5991,11.4995 C14.8539,11.0592 15,10.5482 15,9.99999 C15,9.4518 14.8539,8.94077 14.5991,8.50047 C14.4674,8.27288 14.3065,8.06385 14.1213,7.87867 C13.7308,7.48815 13.7308,6.85498 14.1213,6.46446 C14.5118,6.07394 15.145,6.07394 15.5355,6.46446 Z" id="形状" fill="#09244B"></path>
            </g>
        </g>
    </g>
</svg>

<svg xmlns="http://www.w3.org/2000/svg" width="24" height="24"><g fill="none" fill-rule="nonzero"><path d="M24 0v24H0V0h24ZM12.594 23.258l-.012.002-.071.035-.02.004-.014-.004-.071-.036c-.01-.003-.019 0-.024.006l-.004.01-.017.428.005.02.01.013.104.074.015.004.012-.004.104-.074.012-.016.004-.017-.017-.427c-.002-.01-.009-.017-.016-.018Zm.264-.113-.014.002-.184.093-.01.01-.003.011.018.43.005.012.008.008.201.092c.012.004.023 0 .029-.008l.004-.014-.034-.614c-.003-.012-.01-.02-.02-.022Zm-.715.002a.023.023 0 0 0-.027.006l-.006.014-.034.614c0 .012.007.02.017.024l.015-.002.201-.093.01-.008.003-.011.018-.43-.003-.012-.01-.01-.184-.092Z"/><path fill="#09244B" d="M12 8.5a1.5 1.5 0 0 1 1.102 2.518l3.812 8.576a1 1 0 1 1-1.828.812L14.461 19H9.54l-.625 1.406a1 1 0 0 1-1.828-.812l3.812-8.577A1.5 1.5 0 0 1 12 8.5Zm0 4.962L10.428 17h3.144L12 13.462ZM7.05 3.636a1 1 0 0 1 0 1.414A6.963 6.963 0 0 0 5 10c0 1.277.341 2.471.936 3.5a1 1 0 1 1-1.73 1.002A8.963 8.963 0 0 1 3 10a8.963 8.963 0 0 1 2.636-6.364 1 1 0 0 1 1.414 0Zm11.314 0A8.963 8.963 0 0 1 21 10a8.964 8.964 0 0 1-1.205 4.502 1 1 0 0 1-1.731-1.002A6.964 6.964 0 0 0 19 10a6.963 6.963 0 0 0-2.05-4.95 1 1 0 0 1 1.414-1.414ZM9.879 6.464a1 1 0 0 1 0 1.415A2.982 2.982 0 0 0 9 10c0 .47.107.912.298 1.307l.103.192a1 1 0 1 1-1.731 1.002A4.981 4.981 0 0 1 7 10a4.982 4.982 0 0 1 1.464-3.536 1 1 0 0 1 1.415 0Zm5.657 0A4.981 4.981 0 0 1 17 10c0 .91-.244 1.765-.67 2.501a1 1 0 0 1-1.783-.897l.052-.104c.255-.44.401-.952.401-1.5a2.981 2.981 0 0 0-.879-2.121 1 1 0 0 1 1.415-1.415Z"/></g></svg>
